build/redact/WrapOutline.svg

<svg xmlns="http://www.w3.org/2000/svg" fill="none" viewBox="0 0 24 24" focusable="false"><path d="M0 0H24V24H0z"/><path fill="#74767B" fill-rule="evenodd" d="M7.16055 15.0363C7.29055 15.1763 7.46055 15.2463 7.64055 15.2463C7.80055 15.2463 7.95055 15.1963 8.08055 15.0763L10.7905 12.5008C11.1005 12.2208 11.1005 11.7408 10.7905 11.4608L8.08055 8.9963C7.81055 8.7563 7.40055 8.7763 7.16055 9.0363C6.92055 9.3063 6.93055 9.7163 7.20055 9.9563L8.75111 11.3308C6.98815 11.3308 6.60015 11.3347 6.14475 11.3392C5.73191 11.3434 5.26368 11.348 3.66547 11.3509C3.30692 11.3515 3.0166 11.6424 3.0166 12.0009C3.0166 12.3604 3.3083 12.6516 3.66773 12.6509L8.755 12.6338L7.20055 14.1163C6.94055 14.3563 6.92055 14.7663 7.16055 15.0363ZM16.3955 15.2463C16.5755 15.2463 16.7455 15.1763 16.8755 15.0363C17.1155 14.7663 17.0955 14.3563 16.8355 14.1163L15.2811 12.6338L20.3684 12.6509C20.7278 12.6516 21.0195 12.3604 21.0195 12.0009C21.0195 11.6424 20.7292 11.3515 20.3706 11.3509C18.7724 11.348 18.3042 11.3434 17.8913 11.3392C17.4359 11.3347 17.048 11.3308 15.285 11.3308L16.8355 9.9563C17.1055 9.7163 17.1155 9.3063 16.8755 9.0363C16.6355 8.7763 16.2255 8.7563 15.9555 8.9963L13.2455 11.4608C12.9355 11.7408 12.9355 12.2208 13.2455 12.5008L15.9555 15.0763C16.0855 15.1963 16.2355 15.2463 16.3955 15.2463Z"/></svg>

<svg xmlns="http://www.w3.org/2000/svg" fill="none" viewBox="0 0 24 24" focusable="false"><path fill="#74767B" fill-rule="evenodd" d="M7.64 15.24c-.18 0-.35-.07-.48-.21a.66.66 0 0 1 .04-.92l1.55-1.48-5.09.02c-.36 0-.65-.29-.65-.65s.29-.65.65-.65c1.6-.01 2.07-.01 2.48-.02h2.61L7.2 9.95a.65.65 0 0 1-.04-.92c.24-.26.65-.28.92-.04l2.71 2.47c.31.28.31.76 0 1.04l-2.71 2.57c-.13.12-.28.17-.44.17m8.75 0c.18 0 .35-.07.48-.21.24-.27.22-.68-.04-.92l-1.55-1.48 5.08.02c.36 0 .65-.29.65-.65s-.29-.65-.64-.65c-1.6-.01-2.07-.01-2.48-.02h-2.61l1.55-1.38a.65.65 0 0 0 .04-.92.66.66 0 0 0-.92-.04l-2.71 2.47c-.31.28-.31.76 0 1.04l2.71 2.57c.13.12.28.17.44.17"/></svg>
